X: 3311
T: The Lakes of Kellarnie.   Irish.
%R: air, jig
B: Niel Gow & Sons "A Third Collection of Strathspey Reels, etc." v.3 p.31 #3
Z: 2022 John Chambers <jc:trillian.mit.edu>
M: 6/8
L: 1/8
P: Stacatto
Q: "Slowish"
K: Bb
% %continueall
% - - - - - - - - - -
% Voice 1 reformatted for _ _-bar lines, for compactness and proofreading.
V: 1 staves=2
"^A"[|] B/c/ !segno!|!p!\
{Bc}d.B.B Tc.B.B | fdg fdb |\
gcc !f!Tc>de/f/ | gec Tc2!p!B/c/ |\
{Bc}d.B.B TcBB | fdb Hbag |\
{g}f(e/d/)c/B/ fdB |
TGFB HB2 "^B":| d/e/ |\
(f/g/)f/d/b (f/g/)f/d/b | gcc Tc>de/c/ |\
(f/g/f/)d/b f/g/f/d/b | TGFB TB2(d/e/) |\
(fd).B ({B}fd).B | (fg)g Tg>ab |
(fd).B (fd).B | ecTc c2(d/e/) |\
(fd).B ({B}fd).B | fga Hb2a/g/ |\
fdB fdB | c(c/d/)e/c/ Hg2 f/e/!segno!|]\
"^C"[|] (d/B/) | (F_A).A (GB).B |
A(F/G/A/)F/ B2(d/B/) |\
(F_A).A (GB).B | A(F/G/A/)F/ TB2(B/c/) |\
dBF dBf | dBB Te(f/e/)d/c/ |\
dBF dBf | dBB He2"^S."f/e/ |]
% - - - - - - - - - -
% Voice 2 preserves the staff layout in the book.
V: 2 clef=bass middle=d
z !segno!|!p!\
[b3d'3] [f2c'2]b | [b3d'3]{e'} [b3d'3] | E3 F/G/A/B/c/d/ | e2c [F2f2]!p!z |\
[B3d3] [f2c'2]b | d'ba Tg2e | d2B f2d | e2f !fine!B2 :| z | Bbb
Bbb | e2c f2a | b2B b2d | e2f B2z | B2z B2z | B2e efg | d3 B3 | FAc f2z |\
[B3d3f3] [B3d3f3] | dec Hd2e | d2b B2b | !f!fff He2 "D.C."z !segno!|]
z | [d3b3] [e3b3] | [f3c'3] [g3d'3] | [d2b2][db] [e2b2][eb] | [f2c'2][fc'] Bbz |\
B2b B2d | B2b c2a | b2d B2b | zBB Hc2 "^D.C.al Signo"a |]
%%begintext align
%% The repeat pattern is a bit ambiguous.
%% Most likely, AABAACA was intended.
%%endtext


